Sources/FrostedUI/Resources/Icons.xcassets/telegram24.imageset/telegram-24.svg

<svg width="24" height="24" viewBox="0 0 24 24" fill="none" xmlns="http://www.w3.org/2000/svg" data-fui-icon="true">
  <path
    d="M20.9735 2.98901C21.1083 2.98677 21.2946 3.00171 21.4911 3.04858C21.6592 3.08871 21.8774 3.16289 22.0829 3.30444L22.1698 3.3689L22.1747 3.37183L22.1737 3.3728C22.4735 3.61792 22.6004 3.92185 22.6591 4.13647L22.6991 4.31616L22.701 4.323L22.702 4.33081C22.7303 4.50622 22.7702 4.89985 22.7362 5.24292C22.4563 8.18405 21.2511 15.2599 20.6415 18.5085C20.3884 19.8675 19.8203 20.7843 18.9032 20.9714L18.7147 20.9998C17.9593 21.0689 17.3275 20.8111 16.7958 20.4998C16.5321 20.3454 16.2761 20.1681 16.037 19.9988C15.7907 19.8244 15.5619 19.6589 15.3182 19.4998V19.4988C14.5024 18.9654 13.8637 18.5329 13.2352 18.1062C12.607 17.6797 11.9892 17.2597 11.2079 16.7468H11.2069C10.7134 16.4227 10.3202 16.0718 10.1034 15.658C9.85805 15.1893 9.87956 14.72 10.0604 14.3093C10.2186 13.9505 10.4937 13.6479 10.7274 13.4109C10.8501 13.2864 10.9832 13.1592 11.1073 13.0398C11.2347 12.9172 11.3575 12.7978 11.4764 12.6746C11.6016 12.545 12.4671 11.7474 13.4257 10.8533C12.3048 11.5996 10.9209 12.5236 9.27625 13.6296L9.27722 13.6306C8.47443 14.1809 7.65567 14.5143 6.8407 14.4968C6.42183 14.4878 5.86985 14.3759 5.34949 14.2458C4.81193 14.1115 4.24305 13.9414 3.76257 13.7859L3.7616 13.7849C3.24462 13.6171 2.6353 13.447 2.21082 13.2419C1.98961 13.1351 1.73277 12.9813 1.53894 12.7439C1.32091 12.4766 1.21372 12.1407 1.26062 11.7712H1.2616C1.3208 11.2986 1.64917 10.9705 1.93152 10.7615C2.23504 10.5369 2.63593 10.3374 3.09851 10.1541C8.4547 7.82853 12.0331 6.29194 13.827 5.54761C16.3821 4.48865 17.9424 3.85944 18.953 3.4939C19.9508 3.13302 20.4916 2.99758 20.9725 2.98901H20.9735ZM20.8085 4.50562C20.5778 4.5394 20.203 4.63669 19.4637 4.90405C18.7341 5.16794 17.6915 5.58016 16.1356 6.21753L14.4012 6.93335C12.618 7.67326 9.044 9.2081 3.67371 11.5398L3.66199 11.5447L3.65125 11.5486C3.30906 11.6842 3.06843 11.8073 2.90906 11.9099C3.20796 12.0462 3.62141 12.1624 4.22449 12.3582L4.95593 12.5837C5.20894 12.6578 5.46647 12.729 5.71375 12.7908C6.22549 12.9186 6.63572 12.9917 6.87292 12.9968C7.25473 13.0049 7.76525 12.8488 8.42957 12.3933L8.43542 12.3894C10.945 10.7016 12.8487 9.42898 14.1464 8.57397C14.7945 8.14691 15.2946 7.82186 15.6444 7.60034C15.8186 7.49004 15.9608 7.40238 16.0673 7.3396C16.1197 7.30866 16.1708 7.28017 16.2157 7.25659C16.2276 7.25031 16.3353 7.18966 16.4589 7.16187L16.5985 7.13452C16.6622 7.12454 16.74 7.11632 16.8221 7.11694C16.9954 7.11833 17.261 7.1599 17.495 7.36499H17.496C17.739 7.5767 17.8111 7.84703 17.8339 8.00073C17.8565 8.15421 17.8481 8.30834 17.8192 8.42944L17.8182 8.42847C17.7886 8.55307 17.7353 8.64739 17.7128 8.6853C17.6825 8.73623 17.6497 8.78275 17.621 8.82104C17.563 8.8984 17.4909 8.98314 17.4159 9.06714C17.2641 9.23707 17.0604 9.44867 16.828 9.6814C16.3608 10.1493 15.7475 10.7343 15.1346 11.3113C14.5206 11.8893 13.9011 12.4639 13.4198 12.9099C13.1788 13.1333 12.9731 13.3241 12.8192 13.4675C12.7425 13.5391 12.6798 13.5977 12.6327 13.6423C12.6091 13.6647 12.5901 13.6834 12.576 13.697C12.5619 13.7108 12.5565 13.7165 12.5565 13.7166H12.5555C12.4157 13.8614 12.2755 13.9976 12.1473 14.1208C12.0159 14.2473 11.9008 14.3571 11.7958 14.4636C11.5739 14.6886 11.4725 14.8263 11.4335 14.9148C11.4175 14.9511 11.4201 14.9382 11.4325 14.9617C11.4736 15.0402 11.6156 15.22 12.0311 15.4929C12.8234 16.0131 13.4505 16.439 14.078 16.865C14.7055 17.291 15.3344 17.7181 16.1385 18.2439L16.538 18.5144C16.6663 18.6043 16.789 18.6926 16.9042 18.7742C17.1419 18.9425 17.3511 19.0863 17.5536 19.2048C17.9541 19.4393 18.2632 19.5344 18.578 19.5056C18.5891 19.5046 18.6555 19.5036 18.7645 19.3591C18.8892 19.1938 19.0503 18.8596 19.1669 18.2332V18.2322C19.7775 14.978 20.9714 7.96554 21.244 5.10132V5.09644C21.2513 5.02437 21.2514 4.92271 21.245 4.81226C21.2387 4.70407 21.2276 4.61245 21.2206 4.56909H21.2196C21.2165 4.55326 21.2145 4.54075 21.2118 4.53101L21.2108 4.52905C21.194 4.52206 21.1708 4.51434 21.1425 4.50757C21.0766 4.49189 21.017 4.48877 20.9989 4.48901L20.8085 4.50562Z"
    fill="currentColor"
  />
</svg>

<svg xmlns="http://www.w3.org/2000/svg" width="24" height="24" fill="none" data-fui-icon="true" viewBox="0 0 24 24"><path fill="currentColor" d="M20.974 2.989c.134-.002.32.013.517.06.168.04.386.114.592.255l.087.065.005.003h-.001c.3.246.426.55.485.764l.04.18.002.007.001.008c.028.175.068.569.034.912-.28 2.941-1.485 10.017-2.094 13.266-.254 1.358-.822 2.275-1.739 2.462l-.188.029c-.756.069-1.387-.189-1.92-.5-.263-.155-.519-.332-.758-.501-.246-.175-.475-.34-.719-.5-.816-.534-1.454-.966-2.083-1.393-.628-.426-1.246-.846-2.027-1.36h-.001c-.494-.323-.887-.674-1.104-1.088a1.51 1.51 0 0 1-.043-1.349c.159-.358.434-.661.667-.898.123-.125.256-.252.38-.371.128-.123.25-.242.37-.365.125-.13.99-.928 1.949-1.822q-1.682 1.118-4.15 2.777h.001c-.803.55-1.621.884-2.436.867-.42-.01-.971-.121-1.492-.251a25 25 0 0 1-1.586-.46l-.001-.001c-.517-.168-1.127-.338-1.551-.543-.221-.107-.478-.26-.672-.498a1.26 1.26 0 0 1-.278-.973c.06-.472.388-.8.67-1.01.304-.224.705-.424 1.168-.607q8.035-3.489 10.728-4.606c2.555-1.06 4.115-1.689 5.126-2.054.998-.361 1.539-.496 2.02-.505m-.166 1.517c-.23.033-.605.13-1.344.398-.73.264-1.772.676-3.328 1.314l-1.735.715q-2.673 1.11-10.727 4.607l-.012.005-.01.004a4.4 4.4 0 0 0-.743.36c.299.137.712.253 1.315.45l.732.225c.253.074.51.145.758.207.511.128.922.2 1.159.206.382.008.892-.148 1.557-.604l.005-.004q3.765-2.531 5.711-3.815.973-.64 1.498-.974.263-.166.423-.26.08-.047.149-.083c.012-.007.12-.067.243-.095l.14-.027c.063-.01.141-.019.223-.018.173.001.439.043.673.248h.001c.243.212.315.482.338.636.023.153.014.307-.015.428a1 1 0 0 1-.106.256q-.047.078-.092.136a4 4 0 0 1-.205.246c-.152.17-.356.382-.588.614a82 82 0 0 1-1.693 1.63c-.614.578-1.234 1.153-1.715 1.599l-.787.732-.057.055-.02.02c-.14.144-.28.28-.409.404-.131.126-.246.236-.351.343-.222.225-.323.362-.362.45-.016.037-.014.024-.002.048.042.078.184.258.6.53.791.521 1.418.947 2.046 1.373s1.256.853 2.06 1.379l.4.27.366.26c.238.168.447.312.65.43.4.235.71.33 1.024.302.011-.001.078-.002.187-.147.124-.165.285-.5.402-1.126.61-3.255 1.804-10.267 2.077-13.132v-.005a2.67 2.67 0 0 0-.023-.527h-.001l-.008-.038-.001-.002a.678.678 0 0 0-.212-.04z"/></svg>
